X:1
T:Heinrich Isaac
T:Ne più bella di queste
%%score [ 1 2 3 4 ]
L:1/8
Q:1/4=150
M:none
K:F
V:1 treble nm="Superius"
V:2 treble-8 nm="Altus"
V:3 treble-8 nm="Tenor"
V:4 bass nm="Bassus"
V:1
{[Cc]} F8 | F4 F4 G4 G4 | A8 G8 | c8 c4 B8 |"^$(|)" A6 GF G4 x4 | A8 z4 A4 | A4 A4 B6 A2 | %7
w: Ne|più bel- la di|que- ste,|ne più de-||gnia si|truo- va~al- cu- na~i-|
w: Iu-|non ve- de- te,|che nel|ciel su re-||gnia, ve-|de- te Ci- the-|
w: |||||||
w: Fio-|ren- za, tu sa-|rai la|più fa- mo-||sa~ cip-|ta che ve- gha~el|
w: di|lor pre- sen- za|sa- rai|glo- ri- o-||sa. Iu-|non tuo sta- to|
 G4 F4 E8 :| z16 |"^$(|)" z16 | A4 A2 A2 B4 A2 G4 | F4 E2 F8"^." z16 | z16 | %13
w: de \- a,|||ve- de- te qui Mi- ner-|* * va,||
w: re \- a,||||||
w: |||te- ner don- ne~et ma- ri-|* * ti||
w: so \- le,||||||
w: vo \- le||||||
"^$(|)" G4 G2 G2 A4 G2 A2 | G2 c4 =B2 c8 |[M:3/2] A4 A4 A4 x4 | B8 B4 | A8 A4 |"^$(|)" G4 F4 G4 | %19
w: el Mar- ti- al fu \-|ro \- * re,|Dom- ma coll'|A- re-|te~et col-|la Sa- pien|
w: ||||||
w: ter- ra san- za dis \-|cor \- * dia,|fa- ra~el po-|pol fru-|i- re|fuor d'og- ni~u-|
w: ||||||
w: ||||||
 A4 F8 | E8 z4 | E4 E2 E2 D4 D4 | C3 D E2 F2 G2 B2 A2 G4 |"^$(|)" F4 E2 x12 | F8 |] x8 |] %26
w: \- *|za,|ve- nu- ti~in- sie- me~ad|a * * bi- tar * Fio- ren-|* \-|za.||
w: |||||||
w: san \-|za|sa- no~et ga- gliar- do~et|sem * * pre~in ab \- bon- dan-|* \-|za.||
w: |||||||
w: |||||||
V:2
{[Ef]} f8 | c4 d4 e4 e4 | f8 e8 | c8 c4"^." x4- x4 | x2 G2 c4 B8 | A8 z4 c4 | c4 c4 d6 c2 | %7
w: Ne|più bel- la di|que- ste,|ne più de-||gnia si|truo- va~al- cu- na~i-|
w: Iu-|non ve- de- te,|che nel|ciel su re-||gnia, ve-|de- te Ci- the-|
w: |||||||
w: Fio-|ren- za, tu sa-|rai la|più fa- mo-||sa~ cip-|ta che ve- gha~el|
w: di|lor pre- sen- za|sa- rai|glo- ri- o-||sa, Iu-|non tuo sta- to|
 B4 A4 G8 :| z16 | z16 | c4 c2 c2 d4 c2 B2 x2 | A2 B2 G4 F4 z4 x14 | c4 c2 c2 d4 c3 d | %13
w: de \- a,|||ve- de- te qui Mi \-|ner * * va,|che gl'in- ge- gni con \-|
w: re \- a,||||||
w: |||te- ner don- ne~et ma \-|ri * * ti|e cip- ta- di- ni~u- *|
w: so \- le,||||||
w: vo \- le||||||
 e2 f4 e2 f4 z4 | e4 e2 e2 f4 e2 f2 | e2 c2 d4 c8 |[M:3/2][K:treble-8] c4 c4 c4 | d8 B4 | c8 d4 | %19
w: ser- * \- va,|el Mar- ti- al fu \-|ro \- * re,|Dom- ma coll'|A- re-|te~et col-|
w: ||||||
w: ni- * \- ti|ter- ra san- za dis \-|cor \- * dia,|fa- ra~el po-|pol fru-|i- re|
w: ||||||
w: ||||||
 e4 d6 c2 | c8 B4 | c8 z4 x4 | c4 c2 c2 B4 B4 x2 | A2 c4 BA G4 F2 E2 x2 | F4 G4 |] F8 |] %26
w: la Sa \-|pien \-|za,|ve- nu- ti~in- sie- me~ad|a- * bi \- tar Fio \-|ren- *|za.|
w: |||||||
w: fuor d'og- ni~u-|san \-|za|sa- no~et ga- gliar- do~et|sem * pre~in * ab- bon \-|dan- *|za.|
w: |||||||
w: |||||||
V:3
{[Ff]} c8 | A6 B2 c4 c4 | c8 c8 | G8 c4 B8 | f4 d4 e4 x4 | d8 z4 f4 | f4 f4 f6 f2 | _e4 d4 c8 :| %8
w: Ne|più bel- la di|que- ste,|ne più de-||gnia si|truo- va~al- cu- na~i-|de \- a,|
w: ||||||||
w: Iu-|non ve- de- te,|che nel|ciel su re-||gnia, ve-|de- te Ci- the-|re \- a,|
w: ||||||||
w: Fio-|ren- za, tu sa-|rai la|più fa- mo-||sa~ cip-|ta che ve- gha~el|so \- le,|
w: ||||||||
w: di|lor pre- sen- za|sa- rai|glo- ri- o-||sa, Iu-|non tuo sta- to|vo \- le|
 e4 e2 e2 f4 e2 d2- | d2 c4 =B2 c4 z4 | f4 f2 f2 f4 _e3 d x2 | c2 d2 c4 c4 z4 x14 | %12
w: |\- * \- re,|ve- de- te qui Mi \-|ner * * va,|
w: ma- dre dol- ze d'A- mo-||||
w: ||||
w: |\- * \- dia|te- ner don- ne~et ma \-|ri * * ti|
w: ||||
w: cre- sce- re~et in con- cor-||||
w: ||||
 A4 A2 A2 B4 A2 c2 | BAGF G4 F8 | z8 z8 | z8 z8 |[M:3/2][K:treble-8] F4 F4 F4 | B6 c2 d2 e2 | %18
w: che gl'in- ge- gni con *|ser * * * \- va,|||Dom- ma coll'|A \- re \-|
w: ||||||
w: ||||||
w: e cip- ta- di- ni~u *|ni * * * \- ti|||fa- ra~el po-|pol * fru \-|
w: ||||||
w: ||||||
w: ||||||
 f8 f4 | e4 f4 e4 | c4 d8 | G8 z4 x4 | G4 G2 G2 F4 F4 x2 | f4 e2 d2 c2 G2 A2 c4 | B2 c4 x2 |] c8 |] %26
w: te~et col-|la Sa- pien|\- *|za,|ve- nu- ti~in- sie- me~ad|a- bi \- tar * Fio- ren-|* \-|za.|
w: ||||||||
w: ||||||||
w: i- re|fuor d'og- ni~u-|san \-|za|sa- no~et ga- gliar- do~et|sem- pre~in * ab \- bon- dan-|* \-|za.|
w: ||||||||
w: ||||||||
w: ||||||||
V:4
{[B,,C]} F,8 | F,4 F,4 C,4 C,4 | F,8 C,8 | C,8 C,4 G,8 | F,4 G,8 x4 | D,8 z4 F,4 | %6
w: Ne|più bel- la di|que- ste,|ne più de-||gnia si|
w: ||||||
w: Iu-|non ve- de- te,|che nel|ciel su re-||gnia, ve-|
w: ||||||
w: Fio-|ren- za, tu sa-|rai la|più fa- mo-||sa~ cip-|
w: ||||||
w: di|lor pre- sen- za|sa- rai|glo- ri- o-||sa Iu-|
 F,4 F,4 B,,4 B,,4 | _E,4 F,4 C,8 :| G,4 G,2 G,2 A,4 G,2 F,2 | E,2 F,2 D,4 C,4 z4 | %10
w: tuo- va~al- cu- na~i-|de \- a,||mo \- * re,|
w: ||ma- dre dol- ze d'A *||
w: de- te Ci- the-|re \- a,|||
w: |||cor \- * dia|
w: ta che ve- gha~el|so \- le,|||
w: ||cre- sce- re~et in con *||
w: non tuo sta- to|vo \- le|||
 F,4 F,2 F,2 B,,4 C,2 _E,2 x2 | F,2 B,,2 C,4 F,8 x14 | z16 | z16 | C,4 C2 C2 F,4 C,2 F,2 | %15
w: ve- de- te qui Mi \-|ner * * va,|||el Mar- ti- al fu \-|
w: |||||
w: |||||
w: te- ner don- ne~et ma \-|ri * * ti|||ter- ra san- za dis \-|
w: |||||
w: |||||
w: |||||
 G,2 A,2 G,4 C,8 |[M:3/2] A,4 A,4 A,4 | G,8 G,4 | F,8 F,4 | C,4 D,4 E,4 | F,4 D,8 | C,8 z4 x4 | %22
w: ro \- * re,|Dom- ma coll'|A- re-|te~et col-|la * Sa-|pien \-|za,|
w: |||||||
w: |||||||
w: cor \- * dia,|fa- ra~el po-|pol fru-|i- re|fuor * d'og-|ni~u- san-|za|
w: |||||||
w: |||||||
w: |||||||
"^3.Minerva saggia ci dara vittoriacontro animici in guerra,fara ti trionphar con somma gloriaet per mare et per terrain tutte le buone arteo di mano o d'ingegnio.Sola passera el segniofelice in ogni parte,tochando el cielo colla superba chioma,Fiorenza, bella figluola di Roma.""^4.Ma Vener balla sempre in canti e'n feste,in balli e'n noze et mostre,in varie foggie et nuove sopraveste,in torniamenti et giostrefara galante et belletutte donne et donzelle.Con amorosa vista,(con amorosa vista)terra sempre Fiorenza in canti et risoet dirassi Fiorenza el paradiso." C,4 C,2 C,2 D,4 B,,4 x2 | %23
w: ve- nu- ti~in- sie- me~ad|
w: |
w: |
w: sa- no~et ga- gliar- do~et|
w: |
w: |
w: |
 F,4 C,2 D,2 E,4 F,2 C,2 x2 | D,4 C,4 |] F,8 |] %26
w: a- bi \- tar Fio \-|ren- *|za.|
w: |||
w: |||
w: sem- pre~in * ab- bon \-|dan- *|za.|
w: |||
w: |||
w: |||

